src/assets/icons/svg/lock-done.svg

<svg width="64" height="64" viewBox="0 0 64 64" fill="none" xmlns="http://www.w3.org/2000/svg">
<g clip-path="url(#clip0)">
<path d="M42.25 45.75C43.6307 45.75 44.75 44.6307 44.75 43.25C44.75 41.8693 43.6307 40.75 42.25 40.75C40.8693 40.75 39.75 41.8693 39.75 43.25C39.75 44.6307 40.8693 45.75 42.25 45.75Z" fill="black"/>
<path d="M29.7499 59.0008H9.99996C7.24297 59.0008 4.99998 56.7578 4.99998 54.0008V33.5009C4.99998 30.7439 7.24297 28.5009 9.99996 28.5009H45.9998C48.7568 28.5009 50.9998 30.7439 50.9998 33.5009V38.5008C50.9998 39.8816 52.119 41.0008 53.4998 41.0008C54.8805 41.0008 55.9998 39.8816 55.9998 38.5008V33.5009C55.9998 27.9869 51.5138 23.5009 45.9998 23.5009H42.9952V14.6842C42.9952 6.58783 36.2662 0.000976562 27.9953 0.000976562C19.7243 0.000976562 12.9953 6.58783 12.9953 14.6842V23.5009H9.99996C4.48598 23.5009 0 27.9869 0 33.5009V54.0008C0 59.5148 4.48598 64.0008 9.99996 64.0008H29.7499C31.1306 64.0008 32.2499 62.8815 32.2499 61.5008C32.2499 60.12 31.1306 59.0008 29.7499 59.0008ZM17.9953 14.6842C17.9953 9.34482 22.4813 5.00096 27.9953 5.00096C33.5092 5.00096 37.9952 9.34482 37.9952 14.6842V23.5009H17.9953V14.6842Z" fill="black"/>
<path d="M62.9552 40.7173C61.8324 39.9134 60.2705 40.172 59.4672 41.2948L47.1446 58.5072C46.8081 58.8974 46.3863 58.9817 46.1603 58.9967C45.9286 59.0121 45.4823 58.9827 45.0895 58.6141L37.126 50.8427C36.1377 49.8782 34.555 49.8978 33.5907 50.8858C32.6264 51.874 32.6456 53.4567 33.6339 54.4211L41.6113 62.2062C41.6188 62.2134 41.6262 62.2207 41.6338 62.2278C42.8297 63.3664 44.4261 63.9998 46.0686 63.9998C46.2097 63.9998 46.3512 63.9952 46.4927 63.9857C48.2819 63.8664 49.9526 62.9963 51.0759 61.5985C51.1049 61.5623 51.1329 61.5254 51.1601 61.4877L63.5326 44.2052C64.3363 43.0826 64.0778 41.5209 62.9552 40.7173Z" fill="black"/>
<path d="M32.75 45.75C34.1307 45.75 35.25 44.6307 35.25 43.25C35.25 41.8693 34.1307 40.75 32.75 40.75C31.3693 40.75 30.25 41.8693 30.25 43.25C30.25 44.6307 31.3693 45.75 32.75 45.75Z" fill="black"/>
<path d="M14 45.75C15.3807 45.75 16.5 44.6307 16.5 43.25C16.5 41.8693 15.3807 40.75 14 40.75C12.6193 40.75 11.5 41.8693 11.5 43.25C11.5 44.6307 12.6193 45.75 14 45.75Z" fill="black"/>
<path d="M23.375 45.75C24.7557 45.75 25.875 44.6307 25.875 43.25C25.875 41.8693 24.7557 40.75 23.375 40.75C21.9943 40.75 20.875 41.8693 20.875 43.25C20.875 44.6307 21.9943 45.75 23.375 45.75Z" fill="black"/>
</g>
<defs>
<clipPath id="clip0">
<rect width="64" height="64" fill="white"/>
</clipPath>
</defs>
</svg>

<?xml version="1.0" encoding="iso-8859-1"?>
<!-- Generator: Adobe Illustrator 23.1.0, SVG Export Plug-In . SVG Version: 6.00 Build 0)  -->
<svg version="1.1" id="&#x421;&#x43B;&#x43E;&#x439;_1"
	 xmlns="http://www.w3.org/2000/svg" xmlns:xlink="http://www.w3.org/1999/xlink" x="0px" y="0px" viewBox="0 0 64 64"
	 style="enable-background:new 0 0 64 64;" xml:space="preserve">
<g>
	<defs>
		<rect id="SVGID_1_" width="64" height="64"/>
	</defs>
	<clipPath id="SVGID_2_">
		<use xlink:href="#SVGID_1_"  style="overflow:visible;"/>
	</clipPath>
	<g style="clip-path:url(#SVGID_2_);">
		<path d="M42.25,45.75c1.381,0,2.5-1.119,2.5-2.5s-1.119-2.5-2.5-2.5s-2.5,1.119-2.5,2.5S40.869,45.75,42.25,45.75z"/>
		<path d="M29.75,59.001H10c-2.757,0-5-2.243-5-5v-20.5c0-2.757,2.243-5,5-5h36c2.757,0,5,2.243,5,5v5c0,1.381,1.119,2.5,2.5,2.5
			c1.381,0,2.5-1.119,2.5-2.5v-5c0-5.514-4.486-10-10-10h-3.005v-8.817c0-8.096-6.729-14.683-15-14.683c-8.271,0-15,6.587-15,14.683
			v8.817H10c-5.514,0-10,4.486-10,10v20.5c0,5.514,4.486,10,10,10h19.75c1.381,0,2.5-1.119,2.5-2.5
			C32.25,60.12,31.131,59.001,29.75,59.001z M17.995,14.684c0-5.339,4.486-9.683,10-9.683c5.514,0,10,4.344,10,9.683v8.817h-20
			V14.684z"/>
		<path d="M62.955,40.717c-1.123-0.804-2.685-0.545-3.488,0.577L47.145,58.507c-0.336,0.39-0.758,0.475-0.984,0.49
			c-0.232,0.015-0.678-0.014-1.071-0.383l-7.964-7.771c-0.988-0.965-2.571-0.945-3.535,0.043c-0.964,0.988-0.945,2.571,0.043,3.535
			l7.977,7.785c0.007,0.007,0.015,0.014,0.022,0.022C42.83,63.366,44.426,64,46.069,64c0.141,0,0.283-0.005,0.424-0.014
			c1.789-0.119,3.46-0.989,4.583-2.387c0.029-0.036,0.057-0.073,0.084-0.111l12.373-17.283
			C64.336,43.083,64.078,41.521,62.955,40.717z"/>
		<path d="M32.75,45.75c1.381,0,2.5-1.119,2.5-2.5s-1.119-2.5-2.5-2.5s-2.5,1.119-2.5,2.5S31.369,45.75,32.75,45.75z"/>
		<path d="M14,45.75c1.381,0,2.5-1.119,2.5-2.5s-1.119-2.5-2.5-2.5s-2.5,1.119-2.5,2.5S12.619,45.75,14,45.75z"/>
		<path d="M23.375,45.75c1.381,0,2.5-1.119,2.5-2.5s-1.119-2.5-2.5-2.5s-2.5,1.119-2.5,2.5S21.994,45.75,23.375,45.75z"/>
	</g>
</g>
</svg>
